gama.ui.shared/icons_svg/light/agents/action.highlight.svg

<svg height="25" viewBox="-912.5 -4045.5 25 25" width="25" xmlns="http://www.w3.org/2000/svg"><g fill="none"><circle cx="-900" cy="-4033" fill="#fff" r="12"/><circle cx="-900" cy="-4033" r="12" stroke="#000" stroke-linecap="round" stroke-linejoin="round" stroke-width=".25"/><path d="m-900-4028.8095c-2.3143 0-4.1904-1.8762-4.1904-4.1905s1.8761-4.1905 4.1904-4.1905c2.3144 0 4.1905 1.8762 4.1905 4.1905s-1.8761 4.1905-4.1905 4.1905zm0-.7619c1.8936 0 3.4286-1.5351 3.4286-3.4286s-1.535-3.4286-3.4286-3.4286c-1.8935 0-3.4285 1.5351-3.4285 3.4286s1.535 3.4286 3.4285 3.4286zm.381-8.7619c0 .2103-.1706.3809-.381.3809s-.3809-.1706-.3809-.3809v-2.2857c0-.2104.1705-.381.3809-.381s.381.1706.381.381zm0 12.9523c0 .2104-.1706.381-.381.381s-.3809-.1706-.3809-.381v-2.2857c0-.2103.1705-.3809.3809-.3809s.381.1706.381.3809zm3.6596-11.121c-.1487.149-.3899.149-.5387 0-.1488-.1486-.1488-.39 0-.5386l1.5621-1.5621c.1488-.1488.39-.1488.5387 0 .1488.1487.1488.39 0 .5387zm-9.1045 9.1047c-.1488.1488-.39.1488-.5388 0-.1487-.1487-.1487-.39 0-.5387l1.5621-1.562c.1488-.149.39-.149.5388 0 .1487.1486.1487.39 0 .5386zm10.3973-5.2217c-.2104 0-.381-.1706-.381-.381s.1706-.381.381-.381h2.2857c.2104 0 .3809.1706.3809.381s-.1705.381-.3809.381zm-12.9524 0c-.2104 0-.381-.1706-.381-.381s.1706-.381.381-.381h2.2857c.2104 0 .381.1706.381.381s-.1706.381-.381.381zm11.1209 3.6596c-.1488-.1486-.1488-.39 0-.5386.1488-.149.39-.149.5387 0l1.5621 1.562c.1488.1487.1488.39 0 .5387-.1487.1488-.3899.1488-.5387 0zm-9.1046-9.1046c-.1487-.1487-.1487-.39 0-.5387.1488-.1488.39-.1488.5388 0l1.5621 1.5621c.1487.1486.1487.39 0 .5386-.1488.149-.39.149-.5388 0z" fill="#66727e"/></g></svg>

<?xml version="1.0" encoding="UTF-8" standalone="no"?>
<!DOCTYPE svg PUBLIC "-//W3C//DTD SVG 1.1//EN" "http://www.w3.org/Graphics/SVG/1.1/DTD/svg11.dtd">
<svg version="1.1" xmlns="http://www.w3.org/2000/svg" xmlns:xl="http://www.w3.org/1999/xlink" xmlns:dc="http://purl.org/dc/elements/1.1/" viewBox="-912.5 -4045.5 24.999996 25" width="24.999996" height="25">
  <defs/>
  <g id="SOURCES" stroke-dasharray="none" fill="none" stroke="none" fill-opacity="1" stroke-opacity="1">
    <title>SOURCES</title>
    <g id="SOURCES_Calque_2">
      <title>Calque 2</title>
      <g id="Graphic_8789">
        <circle cx="-900" cy="-4033" r="12.0000182688381" fill="white"/>
        <circle cx="-900" cy="-4033" r="12.0000182688381" stroke="black" stroke-linecap="round" stroke-linejoin="round" stroke-width=".25"/>
      </g>
      <g id="Graphic_8797">
        <path d="M -900 -4028.8095 C -902.3143 -4028.8095 -904.1904 -4030.6857 -904.1904 -4033 C -904.1904 -4035.3143 -902.3143 -4037.1905 -900 -4037.1905 C -897.6856 -4037.1905 -895.8095 -4035.3143 -895.8095 -4033 C -895.8095 -4030.6857 -897.6856 -4028.8095 -900 -4028.8095 Z M -900 -4029.5714 C -898.1064 -4029.5714 -896.5714 -4031.1065 -896.5714 -4033 C -896.5714 -4034.8935 -898.1064 -4036.4286 -900 -4036.4286 C -901.8935 -4036.4286 -903.4285 -4034.8935 -903.4285 -4033 C -903.4285 -4031.1065 -901.8935 -4029.5714 -900 -4029.5714 Z M -899.619 -4038.3333 C -899.619 -4038.123 -899.7896 -4037.9524 -900 -4037.9524 C -900.2104 -4037.9524 -900.3809 -4038.123 -900.3809 -4038.3333 L -900.3809 -4040.619 C -900.3809 -4040.8294 -900.2104 -4041 -900 -4041 C -899.7896 -4041 -899.619 -4040.8294 -899.619 -4040.619 Z M -899.619 -4025.381 C -899.619 -4025.1706 -899.7896 -4025 -900 -4025 C -900.2104 -4025 -900.3809 -4025.1706 -900.3809 -4025.381 L -900.3809 -4027.6667 C -900.3809 -4027.877 -900.2104 -4028.0476 -900 -4028.0476 C -899.7896 -4028.0476 -899.619 -4027.877 -899.619 -4027.6667 Z M -895.9594 -4036.502 C -896.1081 -4036.353 -896.3493 -4036.353 -896.4981 -4036.502 C -896.6469 -4036.6506 -896.6469 -4036.892 -896.4981 -4037.0406 L -894.936 -4038.6027 C -894.7872 -4038.7515 -894.546 -4038.7515 -894.3973 -4038.6027 C -894.2485 -4038.454 -894.2485 -4038.2127 -894.3973 -4038.064 Z M -905.0639 -4027.3973 C -905.2127 -4027.2485 -905.4539 -4027.2485 -905.6027 -4027.3973 C -905.7514 -4027.546 -905.7514 -4027.7873 -905.6027 -4027.936 L -904.0406 -4029.498 C -903.8918 -4029.647 -903.6506 -4029.647 -903.5018 -4029.498 C -903.3531 -4029.3494 -903.3531 -4029.108 -903.5018 -4028.9594 Z M -894.6666 -4032.619 C -894.877 -4032.619 -895.0476 -4032.7896 -895.0476 -4033 C -895.0476 -4033.2104 -894.877 -4033.381 -894.6666 -4033.381 L -892.3809 -4033.381 C -892.1705 -4033.381 -892 -4033.2104 -892 -4033 C -892 -4032.7896 -892.1705 -4032.619 -892.3809 -4032.619 Z M -907.619 -4032.619 C -907.8294 -4032.619 -908 -4032.7896 -908 -4033 C -908 -4033.2104 -907.8294 -4033.381 -907.619 -4033.381 L -905.3333 -4033.381 C -905.1229 -4033.381 -904.9523 -4033.2104 -904.9523 -4033 C -904.9523 -4032.7896 -905.1229 -4032.619 -905.3333 -4032.619 Z M -896.4981 -4028.9594 C -896.6469 -4029.108 -896.6469 -4029.3494 -896.4981 -4029.498 C -896.3493 -4029.647 -896.1081 -4029.647 -895.9594 -4029.498 L -894.3973 -4027.936 C -894.2485 -4027.7873 -894.2485 -4027.546 -894.3973 -4027.3973 C -894.546 -4027.2485 -894.7872 -4027.2485 -894.936 -4027.3973 Z M -905.6027 -4038.064 C -905.7514 -4038.2127 -905.7514 -4038.454 -905.6027 -4038.6027 C -905.4539 -4038.7515 -905.2127 -4038.7515 -905.0639 -4038.6027 L -903.5018 -4037.0406 C -903.3531 -4036.892 -903.3531 -4036.6506 -903.5018 -4036.502 C -903.6506 -4036.353 -903.8918 -4036.353 -904.0406 -4036.502 Z" fill="#66727e"/>
      </g>
    </g>
  </g>
</svg>
